assets/imgs/balanca.svg

<svg width="13" height="13" viewBox="0 0 13 13" fill="none" xmlns="http://www.w3.org/2000/svg">
<path d="M12.9595 6.00203L12.9598 6.00187L11.2115 2.50522C11.147 2.37619 11.0151 2.29468 10.8708 2.29468H7.64577V1.14575C7.64577 0.513983 7.13178 0 6.50001 0C5.86824 0 5.35426 0.513983 5.35426 1.14575V2.29468H2.12919C1.98492 2.29468 1.85306 2.37619 1.78852 2.50522L0.0401934 6.00187L0.0404727 6.00203C0.0148028 6.05329 0 6.11095 0 6.17219C0 7.34623 0.955146 8.30138 2.12919 8.30138C3.30323 8.30138 4.25837 7.34623 4.25837 6.17219C4.25837 6.11095 4.24357 6.05329 4.21787 6.00203L4.21815 6.00187L2.74542 3.0564H5.35423V10.7085H4.97022C3.91669 10.7085 3.05958 11.5656 3.05958 12.6192C3.05958 12.8295 3.2301 13 3.44044 13H9.55959C9.76993 13 9.94045 12.8295 9.94045 12.6192C9.94045 11.5656 9.08334 10.7085 8.0298 10.7085H7.64577V3.0564H10.2546L8.78185 6.00187L8.78213 6.00203C8.75643 6.05329 8.74163 6.11095 8.74163 6.17219C8.74163 7.34623 9.69678 8.30138 10.8708 8.30138C12.0449 8.30138 13 7.34623 13 6.17219C13 6.11095 12.9852 6.05329 12.9595 6.00203ZM2.12919 3.52717L3.26128 5.79133H0.997092L2.12919 3.52717ZM2.12919 7.53966C1.50727 7.53966 0.980994 7.12234 0.815675 6.55305H3.4427C3.27738 7.12234 2.75111 7.53966 2.12919 7.53966ZM3.88617 12.2383C4.04364 11.7914 4.47016 11.4702 4.97022 11.4702H8.0298C8.52987 11.4702 8.95638 11.7914 9.11386 12.2383H3.88617ZM6.11598 10.7085V3.0564H6.88405V10.7085H6.11598ZM6.11598 2.29468V1.14575C6.11598 0.933996 6.28825 0.76172 6.50001 0.76172C6.71177 0.76172 6.88405 0.933996 6.88405 1.14575V2.29468H6.11598ZM12.0029 5.79133H9.73877L10.8709 3.52717L12.0029 5.79133ZM10.8708 7.53966C10.2489 7.53966 9.72265 7.12234 9.55733 6.55305H12.1844C12.019 7.12234 11.4927 7.53966 10.8708 7.53966Z" fill="#222222"/>
</svg>

<svg width="13" height="13" fill="none" xmlns="http://www.w3.org/2000/svg"><path d="M12.96 6.002L11.21 2.505a.38.38 0 00-.34-.21H7.646v-1.15a1.147 1.147 0 00-2.292 0v1.15H2.13a.38.38 0 00-.34.21L.04 6.002a.379.379 0 00-.04.17c0 1.174.955 2.13 2.13 2.13 1.173 0 2.128-.956 2.128-2.13a.378.378 0 00-.04-.17L2.745 3.056h2.61v7.653H4.97c-1.053 0-1.91.857-1.91 1.91 0 .21.17.381.38.381h6.12c.21 0 .38-.17.38-.38 0-1.054-.857-1.911-1.91-1.911h-.384V3.056h2.609L8.782 6.002a.378.378 0 00-.04.17c0 1.174.955 2.13 2.129 2.13S13 7.345 13 6.171a.378.378 0 00-.04-.17zM2.13 3.527L3.26 5.791H.997L2.13 3.527zm0 4.013a1.37 1.37 0 01-1.314-.987h2.627a1.37 1.37 0 01-1.314.987zm1.756 4.698a1.151 1.151 0 011.084-.768h3.06c.5 0 .926.321 1.084.768H3.886zm2.23-1.53V3.057h.768v7.653h-.768zm0-8.413v-1.15a.384.384 0 01.768 0v1.15h-.768zm5.887 3.496H9.739l1.132-2.264 1.132 2.264zM10.87 7.54a1.37 1.37 0 01-1.314-.987h2.627a1.37 1.37 0 01-1.313.987z" fill="#222"/></svg>
